svgs/light/laptop-arrow-down.svg

<svg xmlns="http://www.w3.org/2000/svg" viewBox="0 0 640 512"><!-- Font Awesome Pro 6.0.0-alpha2 by @fontawesome - https://fontawesome.com License - https://fontawesome.com/license (Commercial License) --><path d="M240.014 208C235.92 208 231.826 209.562 228.701 212.688C222.451 218.938 222.451 229.063 228.701 235.312L308.701 315.312C314.951 321.562 325.076 321.562 331.326 315.312L411.326 235.312C417.576 229.062 417.576 218.937 411.326 212.688S394.951 206.438 388.701 212.688L336.014 265.375V48C336.014 39.156 328.857 32 320.014 32S304.014 39.156 304.014 48V265.375L251.326 212.688C248.201 209.562 244.107 208 240.014 208ZM400 64H512C529.674 64 544 78.326 544 96V336C544 344.844 551.156 352 560 352S576 344.844 576 336V96C576 60.652 547.346 32 512 32H400C391.164 32 384 39.162 384 48C384 56.836 391.164 64 400 64ZM80 352C88.844 352 96 344.844 96 336V96C96 78.326 110.326 64 128 64H240C248.836 64 256 56.836 256 48C256 39.162 248.836 32 240 32H128C92.654 32 64 60.652 64 96V336C64 344.844 71.156 352 80 352ZM624 384H16C7.25 384 0 391.25 0 400V416C0 451.25 28.75 480 64 480H576C611.25 480 640 451.25 640 416V400C640 391.25 632.75 384 624 384ZM576 448H64C46.355 448 32 433.645 32 416H608C608 433.645 593.645 448 576 448Z"/></svg>

<svg xmlns="http://www.w3.org/2000/svg" viewBox="0 0 640 512"><!--! Font Awesome Pro 6.3.0 by @fontawesome - https://fontawesome.com License - https://fontawesome.com/license (Commercial License) Copyright 2023 Fonticons, Inc. --><path d="M240 208c-4.094 0-8.188 1.562-11.31 4.688c-6.25 6.25-6.25 16.38 0 22.62l80 80c6.25 6.25 16.38 6.25 22.62 0l80-80c6.25-6.25 6.25-16.38 0-22.62s-16.38-6.25-22.62 0l-52.69 52.69V48c0-8.844-7.167-16-16.01-16S304 39.16 304 48v217.4L251.3 212.7C248.2 209.6 244.1 208 240 208zM400 64H512c17.67 0 32 14.33 32 32v240c0 8.844 7.156 16 16 16s16-7.156 16-16V96c0-35.35-28.65-64-64-64h-112C391.2 32 384 39.16 384 48C384 56.84 391.2 64 400 64zM80 352C88.84 352 96 344.8 96 336V96c0-17.67 14.33-32 32-32h112C248.8 64 256 56.84 256 48C256 39.16 248.8 32 240 32H128C92.65 32 64 60.65 64 96v240C64 344.8 71.16 352 80 352zM624 384h-608C7.25 384 0 391.3 0 400V416c0 35.25 28.75 64 64 64h512c35.25 0 64-28.75 64-64v-16C640 391.3 632.8 384 624 384zM576 448H64c-17.64 0-32-14.36-32-32h576C608 433.6 593.6 448 576 448z"/></svg>
